X: 134
T: Over the Hills to Glory
M:6/8
L:1/8
Q:160
S:Playford
O:Manuscript
A:English
K:D
A2 F ABc|d2 e d2 c|B2 G Bcd|e2 f e2 c|A2 F ABc|d2 e f2 e|dcB A2 f|e3 d3:|
|: f a2 d2 e|f2 g agf|g a2 e2 f|g2 a bag|f a2 e2 f|d2 e f2 e|dcB A2 f|e3 d3 :|

